!!!id: bhatk3192a1
!!!vol: 3
!!!page: 192
!!!antara: Umage naina
!!!raag: bihag
!!!taal: teental
!!!tempo: madhyalaya
**kern
!!data: // >mP  P  >PS'  -/  S'  -  S'  -/  >NS'  -  G'  %S'/  -  S'  [N  P]/
==1
f#q
4g
4g
gq
2cc
=
2cc
2cc
=
bq
2cc
4ee
[4ccS
=
4cc]
4cc
4bH
4gh
!!data: // >m[P  -  S']  -/  N  -  -  -/  >PG  M  %P  -/  >PG  M  [G  S]/
==2
f#q
2gH
2cch
=
1b
=
gq
4e
4f
2gS
=
gq
4e
4f
4eH
4ch
!!data: // >SN,  -  P,  N,/  -  N,  S  -/  G  >RS  -  S/  >PN  >DN  >DP  P/
==3
cq
2B
4G
[4B
=
4B]
4B
2c
=
4e
dq
2c
4c
=
gq
4b
aq
4b
aq
4g
4g
!!data: // P  -  >PG  M/  [G  -  S]  -/  =  =  =  =/  =  =  =  =/
==4
2g
gq
4e
4f
=
2eH
2ch
=
4ryy
4ryy
4ryy
4ryy
=
4ryy
4ryy
4ryy
4ryy
==
*-
